packages/web/src/assets/images/icons/toggle-close.svg

<svg fill="none" height="17" viewBox="0 0 22 17" width="22" xmlns="http://www.w3.org/2000/svg"><path clip-rule="evenodd" d="m21.5.5h-1.5v16.5h1.5zm-13.57538.75-6.36396 6.36396-1.06066 1.06066 1.06066 1.06066 6.36396 6.36392 1.06066-1.0606-5.53859-5.53861h12.05331v-1.5h-12.20405l5.68933-5.68933z" fill="#606266" fill-rule="evenodd"/></svg>

<svg width="22" height="17" viewBox="0 0 22 17" fill="none" xmlns="http://www.w3.org/2000/svg">
    <path fill-rule="evenodd" clip-rule="evenodd" d="M21.5 0.5H20V17H21.5V0.5ZM7.92462 1.25L1.56066 7.61396L0.5 8.67462L1.56066 9.73528L7.92462 16.0992L8.98528 15.0386L3.44669 9.49999H15.5V7.99999H3.29595L8.98528 2.31066L7.92462 1.25Z" fill="#606266"/>
</svg>
